frontend/public/svg/interface/transform.svg

<svg width="159" height="159" viewBox="0 0 159 159" fill="none" xmlns="http://www.w3.org/2000/svg">
<g clip-path="url(#clip0)">
<path d="M8.849 158.908C9.14816 158.908 9.45775 158.901 9.77763 158.887C15.1367 158.655 20.571 158.206 25.8251 157.771C28.0999 157.583 30.3754 157.394 32.6509 157.222C38.6471 156.768 40.9126 154.132 40.4716 148.122C40.3732 146.781 40.3052 145.446 40.2398 144.156C40.2239 143.839 40.2081 143.527 40.1921 143.22H119.642C119.69 143.482 119.719 143.748 119.728 144.015V144.61C119.752 145.38 119.719 146.15 119.631 146.916C119.018 151.227 119.378 153.893 120.797 155.561C122.499 157.563 125.565 158.011 129.96 158.086C131.048 158.106 131.881 158.099 132.659 158.066C134.615 157.985 136.57 157.892 138.527 157.8C142.469 157.615 146.544 157.422 150.552 157.324C155.977 157.191 158.329 154.899 158.417 149.66C158.547 141.946 158.589 134.249 158.619 127.026C158.641 121.995 156.871 120.184 151.862 120.11C149.777 120.08 147.676 120.087 145.451 120.094C144.61 120.094 143.743 120.1 142.848 120.101V38.3293C143.366 38.2929 143.886 38.257 144.408 38.2215C146.043 38.1092 147.734 37.9931 149.411 37.8425C154.37 37.3947 157.342 35.9604 157.86 29.9729C158.478 22.8011 158.43 15.4689 158.383 8.37819L158.378 7.67333C158.38 6.09905 157.827 4.57477 156.814 3.3707C155.802 2.16663 154.398 1.36056 152.85 1.09531C149.776 0.479474 146.64 0.231518 143.509 0.35673C139.258 0.472898 134.945 0.715005 130.774 0.949935C128.158 1.0966 125.543 1.24328 122.926 1.36204C118.531 1.56063 117.288 2.82156 117.14 7.22813C117.085 8.87914 117.01 10.5296 116.932 12.1475L116.862 13.7186C102.598 15.341 45.9673 15.8407 37.3692 14.4376C37.3232 13.8536 37.2792 13.2663 37.2339 12.6751C37.1044 10.9702 36.9704 9.20823 36.8014 7.45923C36.3119 2.38874 34.6347 0.832451 29.6228 0.798704C23.4109 0.75652 16.6475 0.755248 8.34087 0.794187C6.04923 0.804571 4.52023 1.31336 3.53143 2.38677C2.51609 3.49004 2.13077 5.13975 2.31856 7.57475L2.36852 8.21523C2.52695 9.85202 2.59973 11.496 2.58668 13.1403C2.49538 16.6611 2.36515 20.2408 2.23888 23.7025C2.13398 26.6112 2.02778 29.5199 1.9423 32.43C1.88273 34.4619 2.30319 35.915 3.22853 36.8748C4.14221 37.8217 5.54209 38.2871 7.5093 38.2962C9.39429 38.2962 11.3187 38.1592 13.3546 38.0048C14.1142 37.9477 14.901 37.8879 15.7272 37.8334L14.0075 121.209L13.9797 122.535L12.3608 122.745C10.4881 122.987 8.47031 123.247 6.4558 123.528C3.88571 123.885 2.63538 125.374 2.51364 128.214C2.16915 136.425 1.73639 143.168 1.15944 149.436C0.8266 153.042 1.33957 155.425 2.77323 156.935C4.04047 158.273 5.98556 158.908 8.849 158.908ZM9.41113 29.3986L8.36522 8.71235H28.6922V27.7618L9.41113 29.3986ZM37.7088 23.6227C37.6686 23.1295 37.6301 22.6414 37.5934 22.1586H116.974C117.044 23.0769 117.108 23.9932 117.172 24.9089C117.346 27.3828 117.526 29.9405 117.816 32.4462C118.386 37.3784 120.553 39.2209 125.54 39.0912C127.478 39.0321 129.418 38.9399 131.471 38.8425C132.205 38.8075 132.956 38.7722 133.723 38.7367C132.056 70.2054 132.021 96.2502 133.613 120.577L131.332 120.791C129.189 120.993 127.143 121.185 125.097 121.375C122.114 121.649 120.521 123.298 120.362 126.275C120.271 127.994 120.103 129.734 119.925 131.576C119.861 132.251 119.796 132.944 119.728 133.661L39.8598 135.688C39.7504 134.751 39.6499 133.864 39.5528 133.013C39.3048 130.83 39.0913 128.946 38.8303 127.029C38.2689 122.899 36.593 121.242 32.7776 121.242C32.4155 121.242 32.0342 121.257 31.634 121.287C31.0137 121.331 30.3933 121.356 29.773 121.381C29.0607 121.411 28.3544 121.439 27.6473 121.496C26.7582 121.567 25.8815 121.671 24.771 121.803C24.4213 121.843 24.0487 121.888 23.6466 121.932V37.0338C24.1646 36.9864 24.6996 36.9359 25.2513 36.8833C27.0527 36.7139 29.0958 36.5205 31.1019 36.3784C35.838 36.0435 38.1 33.5793 38.0184 28.8443C37.9873 27.0772 37.8455 25.3211 37.7082 23.6234L37.7088 23.6227ZM148.521 28.5751L127.956 29.4258L126.042 8.93047H131.681C137.084 8.93047 142.31 8.93041 147.535 8.9343C149.21 8.9343 149.814 9.55472 149.841 11.2979C149.931 17.1199 149.895 22.8258 148.52 28.5751H148.521ZM9.26031 149.661V130.782L30.5643 129.411V147.845L9.26031 149.661ZM127.201 128.642H150.632L149.192 148.137H128.203L127.201 128.642Z" fill="black"/>
</g>
<defs>
<clipPath id="clip0">
<rect width="158" height="159" fill="white" transform="translate(0.777344)"/>
</clipPath>
</defs>
</svg>

<svg xmlns="http://www.w3.org/2000/svg" width="159" height="159" fill="none" viewBox="0 0 159 159"><g clip-path="url(#a)"><path fill="#000" d="M8.849 158.908q.45 0 .929-.021c5.359-.232 10.793-.681 16.047-1.116 2.275-.188 4.55-.377 6.826-.549 5.996-.454 8.262-3.09 7.82-9.1a176 176 0 0 1-.231-3.966l-.048-.936h79.45q.072.394.086.795v.595q.035 1.156-.097 2.306c-.613 4.311-.253 6.977 1.166 8.645 1.702 2.002 4.768 2.45 9.163 2.525 1.088.02 1.921.013 2.699-.02 1.956-.081 3.911-.174 5.868-.266 3.942-.185 8.017-.378 12.025-.476 5.425-.133 7.777-2.425 7.865-7.664.13-7.714.172-15.411.202-22.634.022-5.031-1.748-6.842-6.757-6.916-2.085-.03-4.186-.023-6.411-.016-.841 0-1.708.006-2.603.007V38.329l1.56-.108c1.635-.112 3.326-.228 5.003-.378 4.959-.448 7.931-1.883 8.449-7.87.618-7.172.57-14.504.523-21.595l-.005-.705a6.67 6.67 0 0 0-1.564-4.302 6.64 6.64 0 0 0-3.964-2.276 39.5 39.5 0 0 0-9.341-.738c-4.251.116-8.564.358-12.735.593-2.616.147-5.231.293-7.848.412-4.395.199-5.638 1.46-5.786 5.866-.055 1.651-.13 3.302-.208 4.92l-.07 1.57c-14.264 1.623-70.895 2.123-79.493.72l-.135-1.763c-.13-1.705-.264-3.467-.433-5.216-.49-5.07-2.166-6.627-7.178-6.66A1841 1841 0 0 0 8.34.794c-2.292.01-3.82.52-4.81 1.593C2.516 3.49 2.131 5.14 2.32 7.575l.05.64a47 47 0 0 1 .218 4.925c-.092 3.521-.222 7.1-.348 10.563-.105 2.908-.211 5.817-.297 8.727-.06 2.032.361 3.485 1.287 4.445.913.947 2.313 1.412 4.28 1.421 1.885 0 3.81-.137 5.846-.291.76-.057 1.546-.117 2.372-.172l-1.72 83.376-.027 1.326-1.62.21c-1.872.242-3.89.502-5.904.783-2.57.357-3.82 1.846-3.942 4.686-.345 8.211-.778 14.954-1.355 21.222-.332 3.606.18 5.989 1.614 7.499 1.267 1.338 3.213 1.973 6.076 1.973m.562-129.51L8.365 8.713h20.327v19.05zm28.298-5.775q-.06-.741-.116-1.464h79.381q.104 1.377.198 2.75c.174 2.474.354 5.032.644 7.537.57 4.932 2.737 6.775 7.724 6.645 1.938-.059 3.878-.151 5.931-.248q1.101-.053 2.252-.106c-1.667 31.468-1.702 57.513-.11 81.84l-2.281.214c-2.143.202-4.189.394-6.235.584-2.983.274-4.576 1.923-4.735 4.9-.091 1.719-.259 3.459-.437 5.301l-.197 2.085-79.868 2.027c-.11-.937-.21-1.824-.307-2.675-.248-2.183-.462-4.067-.723-5.984-.561-4.13-2.237-5.787-6.052-5.787q-.544 0-1.144.045c-.62.044-1.24.069-1.861.094-.712.03-1.419.058-2.126.115-.889.071-1.765.175-2.876.307l-1.124.129V37.034l1.604-.15c1.802-.17 3.845-.364 5.85-.506 4.737-.334 6.999-2.799 6.917-7.534-.03-1.767-.172-3.523-.31-5.22zm110.812 4.952-20.565.85-1.914-20.495h5.639c5.403 0 10.629 0 15.854.004 1.675 0 2.279.62 2.306 2.364.09 5.822.054 11.528-1.321 17.277zM9.261 149.661v-18.879l21.303-1.371v18.434zm117.94-21.019h23.431l-1.44 19.495h-20.989z"/></g><defs><clipPath id="a"><path fill="#fff" d="M.777 0h158v159h-158z"/></clipPath></defs></svg>
